app/result/img/vk.svg

<svg width="27" height="16" viewBox="0 0 27 16" fill="none" xmlns="http://www.w3.org/2000/svg">
<path d="M23.9396 6.68926C24.3236 6.17375 24.6284 5.76012 24.8535 5.44805C26.4747 3.20932 27.1775 1.7792 26.9621 1.1557L26.8776 1.00968C26.8215 0.921968 26.6759 0.841422 26.4418 0.768515C26.2075 0.69566 25.9076 0.684019 25.5423 0.732114L21.4937 0.761773C21.4 0.75208 21.3062 0.754344 21.2125 0.768515C21.1187 0.783318 21.0579 0.798173 21.0296 0.812343C21.0014 0.827199 20.9781 0.839104 20.9595 0.848797L20.9033 0.892626C20.8565 0.921651 20.805 0.972908 20.7488 1.04613C20.6925 1.1193 20.6454 1.20411 20.6081 1.30178C20.1677 2.47946 19.6664 3.57465 19.104 4.58697C18.7572 5.19051 18.4384 5.71408 18.1482 6.15637C17.8577 6.59966 17.614 6.92563 17.4172 7.1345C17.2204 7.34374 17.0422 7.512 16.883 7.63811C16.7235 7.76512 16.6018 7.81832 16.5177 7.79899C16.4332 7.77965 16.3535 7.76032 16.2787 7.7403C16.1474 7.65296 16.0418 7.53396 15.9624 7.38278C15.8826 7.23227 15.8289 7.04231 15.8006 6.81343C15.7727 6.58485 15.7559 6.38757 15.7516 6.22185C15.7466 6.05649 15.7491 5.82307 15.7587 5.52096C15.7681 5.21916 15.7727 5.01514 15.7727 4.90778C15.7727 4.53829 15.7798 4.13662 15.7939 3.70334C15.8078 3.27038 15.8196 2.92702 15.8289 2.6739C15.8383 2.42114 15.8429 2.15322 15.8429 1.87081C15.8429 1.58904 15.8264 1.36721 15.7934 1.20638C15.7606 1.04613 15.7112 0.890413 15.646 0.739226C15.5802 0.58867 15.4843 0.471619 15.3576 0.389124C15.231 0.306261 15.0742 0.240834 14.8868 0.191791C14.3898 0.0747391 13.7572 0.0122095 12.989 0.00193717C11.2457 -0.0167637 10.1258 0.0999194 9.62914 0.352671C9.43235 0.46003 9.25417 0.605739 9.09496 0.790798C8.92612 1.0052 8.90284 1.1222 9.02482 1.1409C9.58725 1.22861 9.98525 1.43816 10.2196 1.76893L10.304 1.94398C10.3695 2.07099 10.435 2.29477 10.5008 2.61584C10.5663 2.93697 10.6085 3.29224 10.6275 3.68169C10.6743 4.39222 10.6743 5.00028 10.6275 5.50679C10.5806 6.01324 10.5362 6.40722 10.494 6.689C10.4518 6.97141 10.3885 7.19998 10.3043 7.37503C10.2199 7.55071 10.1637 7.65776 10.1355 7.69674C10.1072 7.73541 10.0839 7.7599 10.0653 7.76965C9.94335 7.81801 9.81701 7.8425 9.68575 7.8425C9.55443 7.8425 9.39517 7.77412 9.20771 7.63774C9.0202 7.50204 8.82559 7.3144 8.62444 7.07582C8.42267 6.8376 8.19575 6.50394 7.94246 6.07545C7.68947 5.64765 7.42684 5.14115 7.15524 4.55731L6.9305 4.13367C6.7899 3.86159 6.59773 3.46471 6.35407 2.94403C6.11041 2.42336 5.89465 1.9198 5.70749 1.43269C5.63238 1.22861 5.51998 1.07289 5.37011 0.965533L5.29996 0.921704C5.2531 0.882985 5.17798 0.841422 5.07492 0.797857C4.97155 0.754029 4.86418 0.722421 4.75148 0.702772L0.899667 0.731798C0.506082 0.731798 0.239144 0.82467 0.0985485 1.00968L0.042351 1.09707C0.0139479 1.14606 0 1.22408 0 1.3308C0 1.43816 0.0282509 1.56939 0.0844484 1.72479C0.64688 3.09754 1.25841 4.4213 1.91893 5.69601C2.57981 6.97141 3.15375 7.99853 3.64107 8.77712C4.12838 9.55634 4.62503 10.2907 5.13132 10.9819C5.6376 11.6731 5.9725 12.1157 6.13638 12.3102C6.30026 12.5052 6.42908 12.6513 6.52286 12.7483L6.87425 13.099C7.09899 13.3325 7.42958 13.6123 7.86542 13.9386C8.3012 14.2648 8.7836 14.5859 9.31347 14.9019C9.84273 15.2185 10.4592 15.476 11.1619 15.676C11.8647 15.8758 12.5488 15.956 13.2143 15.9167H14.8309C15.159 15.8877 15.4072 15.781 15.5759 15.5956L15.632 15.5228C15.6693 15.4647 15.7047 15.3745 15.7375 15.2529C15.7701 15.1314 15.787 14.9972 15.787 14.8515C15.7773 14.4331 15.8081 14.0552 15.8782 13.7199C15.9484 13.384 16.0281 13.1313 16.1173 12.9604C16.2063 12.7905 16.3069 12.6467 16.4195 12.5297C16.5319 12.4126 16.6114 12.3427 16.6585 12.3182C16.7054 12.2943 16.743 12.2772 16.771 12.2669C16.9957 12.1892 17.2604 12.2647 17.5653 12.4932C17.8698 12.7225 18.1557 13.0042 18.4229 13.3401C18.6898 13.6761 19.0108 14.0529 19.3858 14.4717C19.7605 14.8901 20.0885 15.2016 20.3698 15.406L20.651 15.5817C20.8384 15.6981 21.0818 15.8051 21.382 15.9028C21.6818 15.9999 21.9445 16.0244 22.1691 15.9757L25.768 15.917C26.124 15.917 26.4006 15.8564 26.5974 15.7345C26.7942 15.6136 26.9113 15.4789 26.9488 15.3332C26.9861 15.1871 26.9885 15.0224 26.956 14.837C26.9231 14.6522 26.8902 14.5233 26.8576 14.4504C26.8248 14.3776 26.7942 14.3163 26.766 14.268C26.2973 13.392 25.4024 12.3162 24.081 11.0411L24.0527 11.0121L24.0388 10.9973L24.0248 10.9831H24.0107C23.4107 10.3892 23.0314 9.9901 22.8721 9.78539C22.5816 9.39662 22.5158 9.00232 22.6754 8.60323C22.7871 8.30059 23.2086 7.66292 23.9396 6.68926Z" fill="#BE1622"/>
</svg>

<svg width="27" height="16" viewBox="0 0 27 16" fill="none" xmlns="http://www.w3.org/2000/svg"><path d="M23.94 6.69c.384-.516.688-.93.913-1.242 1.622-2.239 2.324-3.669 2.11-4.292l-.085-.146c-.056-.088-.202-.169-.436-.241-.235-.073-.534-.085-.9-.037l-4.048.03a1.11 1.11 0 0 0-.464.05l-.07.037-.057.044a.633.633 0 0 0-.154.153 1.002 1.002 0 0 0-.14.256 24.23 24.23 0 0 1-1.505 3.285 31.534 31.534 0 0 1-.956 1.57c-.29.443-.534.769-.73.978-.198.209-.376.377-.535.503-.16.127-.281.18-.365.161a6.784 6.784 0 0 1-.24-.059.95.95 0 0 1-.316-.357 1.65 1.65 0 0 1-.161-.57 6.368 6.368 0 0 1-.05-.591 12.13 12.13 0 0 1 .008-.701c.01-.302.014-.506.014-.613 0-.37.007-.771.02-1.205l.036-1.03c.01-.252.014-.52.014-.802 0-.282-.017-.504-.05-.665a2.385 2.385 0 0 0-.147-.467.776.776 0 0 0-.288-.35 1.592 1.592 0 0 0-.471-.197c-.497-.117-1.13-.18-1.898-.19-1.743-.019-2.863.098-3.36.35a1.91 1.91 0 0 0-.534.439c-.169.214-.192.331-.07.35.562.088.96.297 1.195.628l.084.175c.066.127.131.35.197.672.065.321.107.676.127 1.066.046.71.046 1.318 0 1.825-.047.506-.092.9-.134 1.182a2.434 2.434 0 0 1-.19.686c-.084.176-.14.283-.168.322a.253.253 0 0 1-.07.073 1.02 1.02 0 0 1-.38.073c-.132 0-.29-.069-.478-.205a3.376 3.376 0 0 1-.584-.562 7.475 7.475 0 0 1-.682-1 17.562 17.562 0 0 1-.787-1.519l-.224-.423c-.141-.272-.333-.67-.577-1.19-.244-.52-.46-1.024-.647-1.511A.964.964 0 0 0 5.37.966L5.3.922a.945.945 0 0 0-.225-.124A1.472 1.472 0 0 0 4.75.703L.9.732c-.394 0-.66.093-.801.278l-.057.087A.486.486 0 0 0 0 1.331c0 .107.028.238.084.394A49.027 49.027 0 0 0 1.92 5.696c.66 1.275 1.235 2.303 1.722 3.081.487.78.984 1.514 1.49 2.205.507.691.841 1.134 1.005 1.328.164.195.293.341.387.438l.351.351c.225.233.556.513.991.84.436.326.919.647 1.448.963.53.317 1.146.574 1.849.774.703.2 1.387.28 2.052.24h1.617c.328-.028.576-.135.745-.32l.056-.073c.037-.058.073-.149.106-.27.032-.122.049-.256.049-.402-.01-.418.021-.796.091-1.131.07-.336.15-.589.24-.76a1.863 1.863 0 0 1 .54-.642c.047-.024.085-.04.113-.051.225-.078.49-.002.794.226.305.23.59.511.858.847.267.336.588.713.963 1.132.375.418.703.73.984.934l.281.176c.187.116.43.223.731.32.3.098.563.122.787.074l3.599-.059c.356 0 .633-.06.83-.182.196-.121.313-.256.35-.402.038-.146.04-.31.008-.496a1.867 1.867 0 0 0-.098-.387 2.003 2.003 0 0 0-.092-.182c-.469-.876-1.364-1.952-2.685-3.227l-.028-.029-.014-.015-.014-.014h-.014c-.6-.594-.98-.993-1.139-1.198-.29-.388-.356-.783-.197-1.182.112-.302.534-.94 1.265-1.914z" fill="#BE1622"/></svg>
